X:0738
T:Miss Hamilton of Bangour's Strathspey.
M:C|
L:1/8
Q:1/4=120
I: :: ||
Z:Jack Campin * www.campin.me.uk * 2009
K:G
B/c/|d>edB  d>edc |B>dgB  B>A AB/c/|d>ed>c   B>dg>b|g>ed>c BGG:|
d   |B>dg>b g>bg>d|e>gd>B c>AA>c   |B>dg>b   g>bgd |e>gdc  Bggd|
     B>dg>b B>dg>b|dgab   aA  AB/c/|de de/f/ gaba  |g>ed>c BGG|]

